svg/color/idv.svg

<?xml version="1.0" encoding="UTF-8" ?>
<!DOCTYPE svg PUBLIC "-//W3C//DTD SVG 1.1//EN" "http://www.w3.org/Graphics/SVG/1.1/DTD/svg11.dtd">
<svg width="250pt" height="165pt" viewBox="0 0 250 165" version="1.1" xmlns="http://www.w3.org/2000/svg">
<g id="#ffffffff">
<path fill="#ffffff" opacity="1.00" d=" M 0.00 0.00 L 250.00 0.00 L 250.00 165.00 L 0.00 165.00 L 0.00 0.00 M 80.32 34.36 C 79.82 45.93 79.80 57.51 79.69 69.09 C 74.41 65.64 69.42 61.54 63.21 59.83 C 55.98 56.29 47.71 57.51 39.95 57.64 C 23.97 60.90 9.71 73.10 5.11 88.92 C 1.71 100.13 2.69 112.94 8.81 123.06 C 15.98 137.03 31.29 146.48 47.01 146.47 C 58.01 146.73 69.64 143.48 77.61 135.57 C 79.18 133.88 81.45 132.46 81.93 130.06 C 80.17 126.00 77.17 122.50 76.18 118.08 C 71.90 122.51 68.30 128.06 62.26 130.28 C 51.72 135.23 38.05 134.78 28.97 126.98 C 25.13 123.55 21.17 119.91 19.13 115.05 C 14.88 105.83 15.21 94.43 20.75 85.80 C 24.32 79.08 30.97 74.75 37.73 71.70 C 43.01 68.99 49.31 71.46 54.72 70.00 C 59.59 72.48 65.05 74.07 69.10 77.89 C 71.82 80.49 74.18 83.48 76.13 86.70 C 77.74 89.36 77.66 92.77 79.67 95.22 C 79.61 101.97 80.55 108.79 83.03 115.10 C 86.96 125.15 94.80 133.37 104.05 138.74 C 120.94 147.62 142.71 143.75 156.59 131.00 C 156.65 134.53 156.67 138.07 157.20 141.57 C 161.35 141.47 165.49 141.48 169.64 141.57 C 169.62 138.26 170.14 134.99 170.18 131.69 C 174.36 134.72 178.56 137.82 183.37 139.81 C 188.36 142.24 193.93 142.84 199.31 143.90 C 202.95 144.78 206.53 143.26 210.05 142.51 C 217.25 142.25 223.73 138.44 229.33 134.20 C 238.21 127.47 244.00 117.12 245.68 106.16 C 248.01 96.76 245.37 86.94 241.59 78.28 C 236.32 67.95 226.75 60.13 215.96 56.12 C 209.29 53.51 202.00 54.43 195.00 54.43 C 184.83 55.48 175.57 61.13 168.46 68.26 C 170.56 72.87 173.34 77.17 175.47 81.78 C 177.75 77.14 181.62 73.35 186.28 71.12 C 189.96 69.36 193.69 67.08 197.92 67.34 C 202.73 67.46 207.82 66.67 212.34 68.75 C 220.99 71.93 228.55 78.72 231.37 87.65 C 232.87 93.04 234.36 98.79 232.78 104.34 C 230.77 116.24 221.58 126.23 210.10 129.75 C 205.63 130.20 201.10 131.23 196.62 130.20 C 187.98 129.10 180.24 123.78 175.34 116.69 C 173.20 113.58 172.09 109.93 170.21 106.69 C 169.94 100.13 170.07 93.43 168.09 87.09 C 165.00 75.76 157.66 65.09 146.95 59.82 C 141.41 56.91 135.41 54.19 129.03 54.34 C 123.05 54.45 116.80 53.62 111.17 56.11 C 104.51 58.11 98.53 61.80 93.49 66.54 C 92.20 55.84 93.13 45.05 92.75 34.30 C 88.60 34.32 84.46 34.32 80.32 34.36 Z" />
<path fill="#ffffff" opacity="1.00" d=" M 117.46 67.72 C 123.89 67.16 130.79 66.49 136.85 69.21 C 146.78 73.39 154.48 82.60 156.42 93.25 C 157.44 100.55 156.51 108.33 152.55 114.67 C 147.08 124.39 136.08 130.62 124.97 130.64 C 117.19 130.32 109.53 127.40 103.54 122.42 C 94.56 114.50 90.98 101.38 94.25 89.92 C 97.83 79.38 106.35 70.23 117.46 67.72 Z" />
</g>
<g id="#1684c6ff">
<path fill="#1684c6" opacity="1.00" d=" M 80.32 34.36 C 84.46 34.32 88.60 34.32 92.75 34.30 C 93.13 45.05 92.20 55.84 93.49 66.54 C 90.69 69.44 88.24 72.67 86.13 76.09 C 82.59 81.91 81.18 88.67 79.67 95.22 C 77.66 92.77 77.74 89.36 76.13 86.70 C 74.18 83.48 71.82 80.49 69.10 77.89 C 65.05 74.07 59.59 72.48 54.72 70.00 C 57.95 66.97 60.73 63.49 63.21 59.83 C 69.42 61.54 74.41 65.64 79.69 69.09 C 79.80 57.51 79.82 45.93 80.32 34.36 Z" />
<path fill="#1684c6" opacity="1.00" d=" M 170.21 106.69 C 172.09 109.93 173.20 113.58 175.34 116.69 C 180.24 123.78 187.98 129.10 196.62 130.20 C 201.10 131.23 205.63 130.20 210.10 129.75 C 210.07 134.00 210.06 138.26 210.05 142.51 C 206.53 143.26 202.95 144.78 199.31 143.90 C 193.93 142.84 188.36 142.24 183.37 139.81 C 178.56 137.82 174.36 134.72 170.18 131.69 C 169.41 123.38 169.36 115.00 170.21 106.69 Z" />
</g>
<g id="#00a2faff">
<path fill="#00a2fa" opacity="1.00" d=" M 111.17 56.11 C 116.80 53.62 123.05 54.45 129.03 54.34 C 135.41 54.19 141.41 56.91 146.95 59.82 C 157.66 65.09 165.00 75.76 168.09 87.09 C 170.07 93.43 169.94 100.13 170.21 106.69 C 169.36 115.00 169.41 123.38 170.18 131.69 C 170.14 134.99 169.62 138.26 169.64 141.57 C 165.49 141.48 161.35 141.47 157.20 141.57 C 156.67 138.07 156.65 134.53 156.59 131.00 C 142.71 143.75 120.94 147.62 104.05 138.74 C 94.80 133.37 86.96 125.15 83.03 115.10 C 80.55 108.79 79.61 101.97 79.67 95.22 C 81.18 88.67 82.59 81.91 86.13 76.09 C 88.24 72.67 90.69 69.44 93.49 66.54 C 98.53 61.80 104.51 58.11 111.17 56.11 M 117.46 67.72 C 106.35 70.23 97.83 79.38 94.25 89.92 C 90.98 101.38 94.56 114.50 103.54 122.42 C 109.53 127.40 117.19 130.32 124.97 130.64 C 136.08 130.62 147.08 124.39 152.55 114.67 C 156.51 108.33 157.44 100.55 156.42 93.25 C 154.48 82.60 146.78 73.39 136.85 69.21 C 130.79 66.49 123.89 67.16 117.46 67.72 Z" />
<path fill="#00a2fa" opacity="1.00" d=" M 168.46 68.26 C 175.57 61.13 184.83 55.48 195.00 54.43 C 202.00 54.43 209.29 53.51 215.96 56.12 C 226.75 60.13 236.32 67.95 241.59 78.28 C 245.37 86.94 248.01 96.76 245.68 106.16 C 244.00 117.12 238.21 127.47 229.33 134.20 C 223.73 138.44 217.25 142.25 210.05 142.51 C 210.06 138.26 210.07 134.00 210.10 129.75 C 221.58 126.23 230.77 116.24 232.78 104.34 C 234.36 98.79 232.87 93.04 231.37 87.65 C 228.55 78.72 220.99 71.93 212.34 68.75 C 207.82 66.67 202.73 67.46 197.92 67.34 C 193.69 67.08 189.96 69.36 186.28 71.12 C 181.62 73.35 177.75 77.14 175.47 81.78 C 173.34 77.17 170.56 72.87 168.46 68.26 Z" />
<path fill="#00a2fa" opacity="1.00" d=" M 5.11 88.92 C 9.71 73.10 23.97 60.90 39.95 57.64 C 47.71 57.51 55.98 56.29 63.21 59.83 C 60.73 63.49 57.95 66.97 54.72 70.00 C 49.31 71.46 43.01 68.99 37.73 71.70 C 30.97 74.75 24.32 79.08 20.75 85.80 C 15.21 94.43 14.88 105.83 19.13 115.05 C 21.17 119.91 25.13 123.55 28.97 126.98 C 38.05 134.78 51.72 135.23 62.26 130.28 C 68.30 128.06 71.90 122.51 76.18 118.08 C 77.17 122.50 80.17 126.00 81.93 130.06 C 81.45 132.46 79.18 133.88 77.61 135.57 C 69.64 143.48 58.01 146.73 47.01 146.47 C 31.29 146.48 15.98 137.03 8.81 123.06 C 2.69 112.94 1.71 100.13 5.11 88.92 Z" />
</g>
</svg>

<?xml version="1.0" encoding="utf-8"?>
<!-- Generator: Adobe Illustrator 26.0.3, SVG Export Plug-In . SVG Version: 6.00 Build 0)  -->
<svg version="1.1" id="Layer_1" xmlns="http://www.w3.org/2000/svg" xmlns:xlink="http://www.w3.org/1999/xlink" x="0px" y="0px"
	 viewBox="0 0 250 165" style="enable-background:new 0 0 250 165;" xml:space="preserve">
<style type="text/css">
	.st0{fill:#FFFFFF;}
	.st1{fill:#1684C6;}
	.st2{fill:#00A2FA;}
</style>
<g id="_x23_ffffffff">
	<path class="st0" d="M117.5,67.7c6.4-0.6,13.3-1.2,19.4,1.5c9.9,4.2,17.6,13.4,19.6,24c1,7.3,0.1,15.1-3.9,21.4
		c-5.5,9.7-16.5,15.9-27.6,16c-7.8-0.3-15.4-3.2-21.4-8.2c-9-7.9-12.6-21-9.3-32.5C97.8,79.4,106.3,70.2,117.5,67.7z"/>
</g>
<g id="_x23_1684c6ff">
	<path class="st1" d="M80.3,34.4c4.1,0,8.3,0,12.4-0.1c0.4,10.8-0.6,21.5,0.7,32.2c-2.8,2.9-5.2,6.1-7.4,9.5
		c-3.5,5.8-4.9,12.6-6.5,19.1c-2-2.5-1.9-5.9-3.5-8.5c-1.9-3.2-4.3-6.2-7-8.8c-4-3.8-9.5-5.4-14.4-7.9c3.2-3,6-6.5,8.5-10.2
		c6.2,1.7,11.2,5.8,16.5,9.3C79.8,57.5,79.8,45.9,80.3,34.4z"/>
	<path class="st1" d="M170.2,106.7c1.9,3.2,3,6.9,5.1,10c4.9,7.1,12.6,12.4,21.3,13.5c4.5,1,9,0,13.5-0.4c0,4.2,0,8.5-0.1,12.8
		c-3.5,0.8-7.1,2.3-10.7,1.4c-5.4-1.1-10.9-1.7-15.9-4.1c-4.8-2-9-5.1-13.2-8.1C169.4,123.4,169.4,115,170.2,106.7z"/>
</g>
<g id="_x23_00a2faff">
	<path class="st2" d="M111.2,56.1c5.6-2.5,11.9-1.7,17.9-1.8c6.4-0.2,12.4,2.6,17.9,5.5c10.7,5.3,18.1,15.9,21.1,27.3
		c2,6.3,1.9,13,2.1,19.6c-0.9,8.3-0.8,16.7,0,25c0,3.3-0.6,6.6-0.5,9.9c-4.1-0.1-8.3-0.1-12.4,0c-0.5-3.5-0.6-7-0.6-10.6
		c-13.9,12.8-35.6,16.6-52.5,7.7c-9.2-5.4-17.1-13.6-21-23.6c-2.5-6.3-3.4-13.1-3.4-19.9c1.5-6.6,2.9-13.3,6.5-19.1
		c2.1-3.4,4.6-6.6,7.4-9.5C98.5,61.8,104.5,58.1,111.2,56.1 M117.5,67.7c-11.1,2.5-19.6,11.7-23.2,22.2c-3.3,11.5,0.3,24.6,9.3,32.5
		c6,5,13.7,7.9,21.4,8.2c11.1,0,22.1-6.2,27.6-16c4-6.3,4.9-14.1,3.9-21.4c-1.9-10.7-9.6-19.9-19.6-24
		C130.8,66.5,123.9,67.2,117.5,67.7z"/>
	<path class="st2" d="M168.5,68.3c7.1-7.1,16.4-12.8,26.5-13.8c7,0,14.3-0.9,21,1.7c10.8,4,20.4,11.8,25.6,22.2
		c3.8,8.7,6.4,18.5,4.1,27.9c-1.7,11-7.5,21.3-16.3,28c-5.6,4.2-12.1,8.1-19.3,8.3c0-4.2,0-8.5,0.1-12.8
		c11.5-3.5,20.7-13.5,22.7-25.4c1.6-5.5,0.1-11.3-1.4-16.7c-2.8-8.9-10.4-15.7-19-18.9c-4.5-2.1-9.6-1.3-14.4-1.4
		c-4.2-0.3-8,2-11.6,3.8c-4.7,2.2-8.5,6-10.8,10.7C173.3,77.2,170.6,72.9,168.5,68.3z"/>
	<path class="st2" d="M5.1,88.9C9.7,73.1,24,60.9,40,57.6c7.8-0.1,16-1.3,23.3,2.2C60.7,63.5,58,67,54.7,70c-5.4,1.5-11.7-1-17,1.7
		c-6.8,3.1-13.4,7.4-17,14.1c-5.5,8.6-5.9,20-1.6,29.2c2,4.9,6,8.5,9.8,11.9c9.1,7.8,22.8,8.2,33.3,3.3c6-2.2,9.6-7.8,13.9-12.2
		c1,4.4,4,7.9,5.8,12c-0.5,2.4-2.8,3.8-4.3,5.5c-8,7.9-19.6,11.2-30.6,10.9c-15.7,0-31-9.4-38.2-23.4C2.7,112.9,1.7,100.1,5.1,88.9z
		"/>
</g>
</svg>
